T: Waltz Of The Little Girls, The
M: 3/4
L: 1/8
K: Fdor
e2 ed cB | A2 AB cd |[1 e^d e=d ef | ed :|[2 e2 f2 d/e/f | g2 ||[2 A2 F2 D2 | G2 |] ~ or ~ [2 A2 FA DF | G2 |]
